X:1
T:Title
%%score [ ( 1 2 ) ( 3 4 ) ]
L:1/8
Q:1/4=120
M:none
K:Eb
V:1 treble nm=" "
V:2 treble 
V:3 bass nm="Midi_74"
V:4 bass 
V:1
 G8 | E4 F4 | G8 || =B8 | c4 A4 | G4 G4"^Gerard Francis Cobb\n(1838-1904)" | G8 | %7
V:2
 E8 | E4 F4 | D8 || G8 | G4 F4 | E4 D4 | E8 | %7
V:3
 C8 | C4 C4 | =B,8 || D8 | C4 C4 | C4 =B,4 | C8 | %7
V:4
 C,8 | C4 A,4 | G,8 || F,8 | E,4 F,4 | G,4 G,,4 | C,8 | %7

